X:1
T: Are you willing?
C:
R:Reel
I:speed 232
Q:232
K:A
M:4/4
L:1/8
|:A2EA FA EA|AB cA BA Bc|A2 EA FA EA|fa ed cA Bc|
A2EA FA EA|AB cA BA Bc|de fg ag ae|fd Bd cA A2|
ag ae fe ce|dB cA BA FA|ag ae fe ce|fd Bd cA Ag|
ag ae fe ce|dB cA BA FA|A,C EA ce ae|fd Bd cA A2:|
